!!!!SEGMENT: pl-kk--kk-i-20--001_anonim--missa-de-nativitate-domini-kyrie.krn
!!!cenid: 17xx:2207
!!!COM: Anonim
!!!COM-rismid: pe30004985
!!!CDT:
!!!CNT:
!!!OTL: Missa De Nativitate Domini – Kyrie
!!!PDT:
!!!AGN: Sacred; Mass
!!!SMS-siglum: PL-Kk
!!!SMS-shelfmark: Kk.I.20
!!!SMS-shelfwork: 001-001 M
!!!SMS-variant:
!!!SMS-altvar:
!!!NIFC-rismid: 1001156656
!!!URL-scan: http://repozytorium.nifc.pl/skany/pl-kk-nut--i-20
!!!ONB-nifc: UWAGA: części Mszy: 1. Kyrie, 2. Et in terra, 3. Sanctus, 4. Agnus Dei.
**kern	**text	**kern	**text	**kern	**text
*part3	*part3	*part2	*part2	*part1	*part1
*staff3	*staff3	*staff2	*staff2	*staff1	*staff1
*I"Baſso.	*	*I"Tenore	*	*I"Alto.	*
*I'B	*	*I'T	*	*I'A	*
*clefF4	*	*clefC4	*	*clefC3	*
*k[b-]	*	*k[b-]	*	*k[b-]	*
*M3/2	*	*M3/2	*	*M3/2	*
=1-	=1-	=1-	=1-	=1-	=1-
*2\right	*	*2\right	*	*2\right	*
!LO:TX:a:t=P:problem:w źródle znaki przykluczowe B- BB-, jeden nad drugim	!	!	!	!	!
2r	.	2rF	.	2r	.
2r	.	2rF	.	2r	.
!LO:TX:t=P:problem:kreska pseudotaktowa	!	!LO:TX:t=P:problem:kreska pseudotaktowa	!	!LO:TX:t=P:problem:kreska pseudotaktowa	!
2G\	Ky-	2G/	Ky-	2d\	Ky-
=2-	=2-	=2-	=2-	=2-	=2-
1G	-ri-	1G	-ri-	1d	-ri-
!LO:TX:t=P:problem:kreska pseudotaktowa	!	!LO:TX:t=P:problem:kreska pseudotaktowa	!	!LO:TX:t=P:problem:kreska pseudotaktowa	!
2G\	-e	2G/	-e	2d\	-e
=3-	=3-	=3-	=3-	=3-	=3-
1F	.	1A	e-	1f	.
!LO:TX:t=P:problem:kreska pseudotaktowa	!	!LO:TX:t=P:problem:kreska pseudotaktowa	!	!LO:TX:t=P:problem:kreska pseudotaktowa	!
2F\	.	2A\	.	2f\	.
=4-	=4-	=4-	=4-	=4-	=4-
2BB-/	e-	2B-\	-e-	2f\	e-
2F\	-lei-	2A\	-ley-	2d\	-le-
!LO:TX:t=P:problem:kreska pseudotaktowa	!	!LO:TX:t=P:problem:kreska pseudotaktowa	!	!LO:TX:t=P:problem:kreska pseudotaktowa	!
2G\	.	2G/	.	2f\	-i-
=5-	=5-	=5-	=5-	=5-	=5-
1D,<	-son	1F,<	-son,	1d	-son
*	*	*	*	*	*ij
!LO:TX:t=P:problem:kreska pseudotaktowa	!	!LO:TX:t=P:problem:kreska pseudotaktowa	!	!LO:TX:t=P:problem:kreska pseudotaktowa	!
2D\	Ky-	2F/	Ky-	2d\	e-
=6-	=6-	=6-	=6-	=6-	=6-
1BB-	-ri-	1B-	-ri-	1f	-le-
!LO:TX:t=P:problem:kreska pseudotaktowa	!	!LO:TX:t=P:problem:kreska pseudotaktowa	!	!LO:TX:t=P:problem:kreska pseudotaktowa	!
2E-X\	-e	2c\	-e	2g\	-i-
=7-	=7-	=7-	=7-	=7-	=7-
2BB-/	e-	2B-\	e-	2f,<\	-son
*	*	*	*	*	*Xij
!LO:TX:t=P:problem:kreska pseudotaktowa	!	!LO:TX:t=P:problem:kreska pseudotaktowa	!	!LO:TX:t=P:problem:kreska pseudotaktowa	!
1F	-lei-	1A	-lei-	1f	Ky-
=8-	=8-	=8-	=8-	=8-	=8-
1BB-,<	-son	1B-,<	-son,	1f	-ri-
!LO:TX:t=P:problem:kreska pseudotaktowa	!	!LO:TX:t=P:problem:kreska pseudotaktowa	!	!LO:TX:t=P:problem:kreska pseudotaktowa	!
2BB-/	Ky-	2B-\	Ky-	2f\	-e
=9-	=9-	=9-	=9-	=9-	=9-
1BB-	-ri-	1B-	-ri-	1f	e-
!LO:TX:t=P:problem:kreska pseudotaktowa	!	!LO:TX:t=P:problem:kreska pseudotaktowa	!	!LO:TX:t=P:problem:kreska pseudotaktowa	!
2BB-/	-e	2B-\	-e	2f\	-lei-
!LO:LB:g=original	!	!	!	!LO:LB:g=original	!
=10-	=10-	=10-	=10-	=10-	=10-
*	*	*	*ij	*	*
1F	.	1A	Ky-	1f	-son
*	*	*	*	*	*ij
!LO:TX:t=P:problem:kreska pseudotaktowa	!	!LO:TX:t=P:problem:kreska pseudotaktowa	!	!LO:TX:t=P:problem:kreska pseudotaktowa	!
2F\	.	2A\	-rie	2f\	Ky-
*	*	*	*Xij	*	*
!	!	!LO:LB:g=original	!	!	!
=11-	=11-	=11-	=11-	=11-	=11-
2G\	e-	2G/	e-	2d\	-ri-
!LO:TX:t=P:problem:kreska pseudotaktowa	!	!LO:TX:t=P:problem:kreska pseudotaktowa	!	!LO:TX:t=P:problem:kreska pseudotaktowa	!
1D	-lei-	1F	-lei-	1d	-e
=12-	=12-	=12-	=12-	=12-	=12-
1GG,<	-son	1G	-son	1d	e-
*	*	*	*ij	*	*
!LO:TX:t=P:problem:kreska pseudotaktowa	!	!LO:TX:t=P:problem:kreska pseudotaktowa	!	!LO:TX:t=P:problem:kreska pseudotaktowa	!
2G\	Ky-	2G/	e-	2d\	-le-
=13-	=13-	=13-	=13-	=13-	=13-
1D	-rie-	1F	-le-	1d	-i-
!LO:TX:t=P:problem:kreska pseudotaktowa	!	!LO:TX:t=P:problem:kreska pseudotaktowa	!	!LO:TX:t=P:problem:kreska pseudotaktowa	!
2G\	.	2G/	.	2d\	-son
*	*	*	*	*	*Xij
=14-	=14-	=14-	=14-	=14-	=14-
1F	-lei-	1A	.	1f	Ky-
!LO:TX:t=P:problem:kreska pseudotaktowa	!	!LO:TX:t=P:problem:kreska pseudotaktowa	!	!LO:TX:t=P:problem:kreska pseudotaktowa	!
2F\	-son	2A\	-i-	2f\	-ri-
=15-	=15-	=15-	=15-	=15-	=15-
1BB-	e-	1B-	-son	1f	-e
!LO:TX:t=P:problem:kreska pseudotaktowa	!	!LO:TX:t=P:problem:kreska pseudotaktowa	!	!LO:TX:t=P:problem:kreska pseudotaktowa	!
2FF/	.	2A\	e-	2f\	e-
=16-	=16-	=16-	=16-	=16-	=16-
2GG/	-lei-	2G/	-le-	2d\	-le-
!LO:TX:t=P:problem:kreska pseudotaktowa	!	!LO:TX:t=P:problem:kreska pseudotaktowa	!	!LO:TX:t=P:problem:kreska pseudotaktowa	!
1D	.	1F#X	-i-	1d	-i-
=17-	=17-	=17-	=17-	=17-	=17-
!LO:TX:t=P:problem:kreska pseudotaktowa	!	!LO:TX:t=P:problem:podwójna kreska pseudotaktowa	!	!LO:TX:t=P:problem:podwójna kreska pseudotaktowa	!
0.GG;>	-son.	0.G;>	-son	0.d;>	-son.
*	*	*	*Xij	*	*
=18||-	=18||-	=18||-	=18||-	=18||-	=18||-
*M3/2	*	*M3/2	*	*M3/2	*
2G\	Chri-	2G/	Chri-	2d\	Chri-
2E-X\	-ste	2B-\	-ste	2c\	-ste
!LO:TX:t=P:problem:kreska pseudotaktowa	!	!LO:TX:t=P:problem:kreska pseudotaktowa	!	!LO:TX:t=P:problem:kreska pseudotaktowa	!
2F\	e-	2c\	e-	2c\	e-
=19-	=19-	=19-	=19-	=19-	=19-
2.BB-/	-le-	2.d\	-le-	1d	-lei-
4BB-/	-i-	4d\	-i-	.	.
!LO:TX:t=P:problem:kreska pseudotaktowa	!	!LO:TX:t=P:problem:kreska pseudotaktowa	!	!LO:TX:t=P:problem:kreska pseudotaktowa	!
2BB-/	-son	2d\	-son	2d\	-son
!LO:LB:g=original	!	!	!	!LO:LB:g=original	!
=20-	=20-	=20-	=20-	=20-	=20-
*	*	*	*	*	*ij
2BB-/	e-	2f\	e-	2f\	Chri-
2E-X\	-lei-	4e-X\	-le-	2g\	-ste
.	.	4d\	.	.	.
!LO:TX:t=P:problem:kreska pseudotaktowa	!	!LO:TX:t=P:problem:kreska pseudotaktowa	!	!LO:TX:t=P:problem:kreska pseudotaktowa	!
2F\	.	2c\	-i-	2f\	e-
!	!	!LO:LB:g=original	!	!	!
=21-	=21-	=21-	=21-	=21-	=21-
1.BB-	-son	1.d	-son	1f	-lei-
!LO:TX:t=P:problem:kreska pseudotaktowa	!	!LO:TX:t=P:problem:kreska pseudotaktowa	!	!LO:TX:t=P:problem:kreska pseudotaktowa	!
.	.	.	.	2f\	-son
=22-	=22-	=22-	=22-	=22-	=22-
2B-\	Chri-	2B-\	Chri-	2f\	Chri-
2G\	-ste	2B-\	-ste	2g\	-ste
!LO:TX:t=P:problem:kreska pseudotaktowa	!	!LO:TX:t=P:problem:kreska pseudotaktowa	!	!LO:TX:t=P:problem:kreska pseudotaktowa	!
2B-\	e-	2B-\	e-	2f\	e-
=23-	=23-	=23-	=23-	=23-	=23-
2.A\	-le-	2.A\	-le-	2f\	-le-
.	.	.	.	2f\	-i-
4G\	-i-	4A\	-i-	.	.
!LO:TX:t=P:problem:kreska pseudotaktowa	!	!LO:TX:t=P:problem:kreska pseudotaktowa	!	!LO:TX:t=P:problem:kreska pseudotaktowa	!
2F\	-son	2A\	-son	2f\	-son
*	*	*	*	*	*Xij
=24-	=24-	=24-	=24-	=24-	=24-
2G\	Chri-	2d\	Chri-	2f\	Chri-
2E-X\	-ste-	2B-\	-ste	2g\	-ste-
!LO:TX:t=P:problem:kreska pseudotaktowa	!	!LO:TX:t=P:problem:kreska pseudotaktowa	!	!LO:TX:t=P:problem:kreska pseudotaktowa	!
2G\	.	2d\	e-	2f\	.
=25-	=25-	=25-	=25-	=25-	=25-
2.F\	-lei-	2.c\	-le-	2.f\	-le-
4E-X\	.	4c\	-i-	4e\	-i-
!LO:TX:t=P:problem:kreska pseudotaktowa	!	!LO:TX:t=P:problem:kreska pseudotaktowa	!	!LO:TX:t=P:problem:kreska pseudotaktowa	!
2D\	-son	2d\	-son	2f\	-son
=26-	=26-	=26-	=26-	=26-	=26-
2E-X\	e-	2B-\	e-	2e-X\	e-
2C/	-lei-	2G/	-le-	2c\	-le-
!LO:TX:t=P:problem:kreska pseudotaktowa	!	!LO:TX:t=P:problem:kreska pseudotaktowa	!	!LO:TX:t=P:problem:kreska pseudotaktowa	!
2D\	.	2A\	-i-	2d\	-i-
=27-	=27-	=27-	=27-	=27-	=27-
!LO:TX:t=P:problem:kreska pseudotaktowa	!	!LO:TX:t=P:problem:kreska pseudotaktowa	!	!LO:TX:t=P:problem:podwójna kreska pseudotaktowa	!
0.GG;>	-son.	0.B-;>	-son.	0.d;>	-son
!LO:LB:g=original	!	!	!	!LO:LB:g=original	!
=28||-	=28||-	=28||-	=28||-	=28||-	=28||-
*M3/2	*	*M3/2	*	*M3/2	*
2.G\	Ky-	2.d\	Ky-	2.d\	Ky-
4G\	-ri-	4d\	-ri-	4d\	-ri-
!LO:TX:t=P:problem:kreska pseudotaktowa	!	!LO:TX:t=P:problem:kreska pseudotaktowa	!	!LO:TX:t=P:problem:kreska pseudotaktowa	!
2G\	-e	2d\	-e	2d\	-e
=29-	=29-	=29-	=29-	=29-	=29-
*	*	*	*ij	*	*
2.C/	Ky-	2.G/	Ky-	2.e\ny	Ky-
4C/	-ri-	4G/	-ri-	4e\	-ri-
!LO:TX:t=P:problem:kreska pseudotaktowa	!	!LO:TX:t=P:problem:kreska pseudotaktowa	!	!LO:TX:t=P:problem:kreska pseudotaktowa	!
2C/	-e	2G/	-e	2e\	-e
*	*	*	*Xij	*	*
!	!	!LO:LB:g=original	!	!	!
=30-	=30-	=30-	=30-	=30-	=30-
*	*ij	*	*	*	*ij
2.F\	Ky-	2.A\	Ky-	2.f\	Ky-
4F\	-ri-	4A\	-ri-	4f\	-ri-
!LO:TX:t=P:problem:kreska pseudotaktowa	!	!LO:TX:t=P:problem:kreska pseudotaktowa	!	!LO:TX:t=P:problem:kreska pseudotaktowa	!
2F\	-e	2A\	-e	2f\	-e
=31-	=31-	=31-	=31-	=31-	=31-
*	*	*	*ij	*	*
2.BB-/	Ky-	2.B-\	Ky-	2.f\	Ky-
4BB-/	-ri-	4B-\	-ri-	4f\	-ri-
!LO:TX:t=P:problem:kreska pseudotaktowa	!	!LO:TX:t=P:problem:kreska pseudotaktowa	!	!LO:TX:t=P:problem:kreska pseudotaktowa	!
2BB-/	-e	2B-\	-e	2f\	-e
*	*Xij	*	*Xij	*	*Xij
=32-	=32-	=32-	=32-	=32-	=32-
2BB-/	e-	2f\	e-	2f\	e-
2E-X\	-lei-	4e-X\	-le-	2g\	-le-
.	.	4d\	-i-	.	.
!LO:TX:t=P:problem:kreska pseudotaktowa	!	!LO:TX:t=P:problem:kreska pseudotaktowa	!	!LO:TX:t=P:problem:kreska pseudotaktowa	!
2F\	.	2c\	.	2f\	-i-
=33-	=33-	=33-	=33-	=33-	=33-
!LO:TX:t=P:problem:kreska pseudotaktowa	!	!LO:TX:t=P:problem:kreska pseudotaktowa	!	!LO:TX:t=P:problem:kreska pseudotaktowa	!
1.BB-	-son	1.d	-son	1.f	-son
=34-	=34-	=34-	=34-	=34-	=34-
2.BB-/	Ky-	1.r	.	2.B-/	Ky-
4C/	-ri-	.	.	4B-/	-ri-
!LO:TX:t=P:problem:kreska pseudotaktowa	!	!LO:TX:t=P:problem:kreska pseudotaktowa	!	!LO:TX:t=P:problem:kreska pseudotaktowa	!
4D/	-e	.	.	2B-/	-e
4E/ny	e-	.	.	.	.
=35-	=35-	=35-	=35-	=35-	=35-
*	*	*	*	*	*ij
1F	-lei-	2.F/ny	Ky-	2.A/	Ky-
.	.	4G/	-ri-	4A/	-ri-
!LO:TX:t=P:problem:kreska pseudotaktowa	!	!LO:TX:t=P:problem:kreska pseudotaktowa	!	!LO:TX:t=P:problem:kreska pseudotaktowa	!
2F\	-son	4A/	-e	2A/	-e
.	.	4B-/	e-	.	.
!LO:LB:g=original	!	!	!	!LO:LB:g=original	!
=36-	=36-	=36-	=36-	=36-	=36-
2.C/	Ky-	1c	-lei-	2e\	Ky-
.	.	.	.	2e\	-ri-
4D/	-ri-	.	.	.	.
!	!	!LO:TX:t=P:problem:kreska pseudotaktowa	!	!LO:TX:t=P:problem:kreska pseudotaktowa	!
4E/	-e	2c\	-son	2e\	-e
!LO:TX:t=P:problem:kreska pseudotaktowa	!	!	!	!	!
4F/	e-	.	.	.	.
=37-	=37-	=37-	=37-	=37-	=37-
2.G\	-lei-	2.d\	Ky-	2.d\	Ky-
4G\	.	4d\	-ri-	4d\	-ri-
!LO:TX:t=P:problem:kreska pseudotaktowa	!	!LO:TX:t=P:problem:kreska pseudotaktowa	!	!LO:TX:t=P:problem:kreska pseudotaktowa	!
2G\	-son	2d\	-e	2d\	-e
*	*	*	*	*	*Xij
=38-	=38-	=38-	=38-	=38-	=38-
2G\	e-	2d\	e-	2d\	e-
2C/	-le-	2G/	-lei-	2e-X\	-le-
!LO:TX:t=P:problem:kreska pseudotaktowa	!	!LO:TX:t=P:problem:kreska pseudotaktowa	!	!LO:TX:t=P:problem:kreska pseudotaktowa	!
2D/	-i-	2A/	-son	2d\	-i-
!	!	!LO:LB:g=original	!	!	!
=39-	=39-	=39-	=39-	=39-	=39-
2GG,</	-son,	2B-\	e-	2d\	-son
2C/	e-	2c\	-le-	2c\	Ky-
!LO:TX:t=P:problem:kreska pseudotaktowa	!	!LO:TX:t=P:problem:kreska pseudotaktowa	!	!LO:TX:t=P:problem:kreska pseudotaktowa	!
2D/	-lei-	2d\	-i-	2d\	-ri-
=40-	=40-	=40-	=40-	=40-	=40-
!LO:TX:t=P:problem:kreska pseudotaktowa	!	!LO:TX:t=P:problem:kreska pseudotaktowa	!	!LO:TX:t=P:problem:kreska pseudotaktowa	!
2GG/	-son	2B-\	-son	1.d	-e
2rC	.	2r	.	.	.
2rC	.	2r	.	.	.
=41-	=41-	=41-	=41-	=41-	=41-
2G\	e-	2d\	e-	2g\	e-
!LO:TX:t=P:problem:kreska pseudotaktowa	!	!LO:TX:t=P:problem:kreska pseudotaktowa	!	!LO:TX:t=P:problem:kreska pseudotaktowa	!
1D	-lei-	1d	-lei-	1f#X	-lei-
=42-	=42-	=42-	=42-	=42-	=42-
!LO:TX:t=P:problem:końcowa kreska pseudotaktowa	!	!LO:TX:t=P:problem:końcowa kreska pseudotaktowa	!	!LO:TX:t=P:problem:podwójna kreska pseudotaktowa	!
0.GG;>	-son.	0.d;>	-son	0.f#;>	-son.
=-	=-	=-	=-	=-	=-
*-	*-	*-	*-	*-	*-
!!!system-decoration: s1,s2,s3
!!!RDF**kern: > = above
!!!RDF**kern: < = below
!!!EED: Antoni Szymański
!!!EST: 2021-07-19
!!!ENC:Berenika Jozajtis
!!!END:2021-07-01
